;FLAVOR:Marlin
;TIME:4250
;Filament used: 7.4464m
;Layer height: 0.2
;MINX:-28.847
;MINY:-64.538
;MINZ:0.2
;MAXX:48.014
;MAXY:53.649
;MAXZ:14
;TARGET_MACHINE.NAME:Unknown
;Generated with Cura_SteamEngine 5.6.0
M82 ;absolute extrusion mode
G21 ; millimeter units
G90 ; absolute coordinates
M82 ; E absolute
M140 S60
M104 S220
M190 S60
M109 S220
G28 ; home axis
M420 S1 ; enable mesh leveling
; Lower nozzle and move to start position
G1 Z150
G1 X-130 Y0 Z0.4 F3000
; Extrude about 40 mm by printing a 90 degree arc
G3 X0 Y-130 I130 Z0.3 E40 F2700
; Retract and move nozzle up
G92 E0
G1 E-1.5 F1800
G0 Z0.5
G1 E0 F300

G92 E0
G92 E0
G1 F2400 E-6.5
;LAYER_COUNT:70
;LAYER:0
M107
G1 F3000 Z0.5
G0 X-27.082 Y24.495 Z0.5
;TYPE:SKIRT
G1 F3000 Z0.2
G1 F2400 E0
G1 F1500 X-27.037 Y-36.75 E2.03702
G1 X-27.075 Y-39.545 E2.12999
G1 X-27.188 Y-42.25 E2.22004
G1 X-27.378 Y-44.954 E2.31019
G1 X-27.649 Y-47.711 E2.40233
G1 X-27.987 Y-50.365 E2.49132
G1 X-28.413 Y-53.095 E2.58322
G1 X-28.539 Y-53.794 E2.60684
G1 X-28.824 Y-55.675 E2.67012
G1 X-28.84 Y-56.718 E2.70481
G1 X-28.829 Y-58.383 E2.76019
G1 X-28.786 Y-58.887 E2.77701
G1 X-28.633 Y-59.501 E2.79806
G1 X-28.406 Y-60.021 E2.81693
G1 X-28.1 Y-60.502 E2.83589
G1 X-27.767 Y-60.882 E2.8527
G1 X-27.276 Y-61.289 E2.87391
G1 X-26.72 Y-61.606 E2.8952
G1 X-25.822 Y-62.014 E2.928
G1 X-23.833 Y-62.887 E3.00025
G1 X-21.978 Y-63.683 E3.06739
G1 X-21.313 Y-63.902 E3.09067
G1 X-20.294 Y-64.052 E3.12493
G1 X-17.568 Y-64.414 E3.21639
G1 X-16.813 Y-64.503 E3.24168
G1 X-16.19 Y-64.535 E3.26243
G1 X36.504 Y-64.538 E5.01504
G1 X37.784 Y-64.52 E5.05761
G1 X38.376 Y-64.493 E5.07733
G1 X39.014 Y-64.405 E5.09875
G1 X41.248 Y-63.89 E5.175
G1 X43.936 Y-63.346 E5.26621
G1 X45.08 Y-63.136 E5.3049
G1 X45.628 Y-62.985 E5.3238
G1 X46.146 Y-62.75 E5.34272
G1 X46.62 Y-62.436 E5.36163
G1 X47.038 Y-62.052 E5.38051
G1 X47.392 Y-61.606 E5.39945
G1 X47.67 Y-61.11 E5.41836
G1 X47.867 Y-60.577 E5.43726
G1 X47.998 Y-59.944 E5.45876
G1 X48.014 Y-58.936 E5.49229
G1 X48.014 Y-57.415 E5.54288
G1 X47.993 Y-56.404 E5.57652
G1 X47.567 Y-53.884 E5.66152
G1 X47.172 Y-51.122 E5.75432
G1 X46.869 Y-48.452 E5.84369
G1 X46.635 Y-45.738 E5.9343
G1 X46.481 Y-43.01 E6.02517
G1 X46.392 Y-39.142 E6.15386
G1 X46.336 Y-19.022 E6.82306
G1 X46.369 Y-16.23 E6.91592
G1 X46.474 Y-13.564 E7.00466
G1 X46.662 Y-10.788 E7.09721
G1 X46.921 Y-8.1 E7.18702
G1 X47.099 Y-6.7 E7.23396
G1 X47.214 Y-5.686 E7.2679
G1 X47.245 Y-5.07 E7.28842
G1 X47.246 Y7.048 E7.69147
G1 X47.23 Y7.906 E7.72001
G1 X47.078 Y10.604 E7.80989
G1 X47 Y13.366 E7.90179
G1 X46.99 Y14.737 E7.94739
G1 X46.99 Y25.2 E8.29539
G1 X46.98 Y25.904 E8.31881
G1 X46.95 Y26.635 E8.34314
G1 X46.871 Y29.422 E8.43587
G1 X46.871 Y32.128 E8.52587
G1 X46.949 Y34.872 E8.61718
G1 X47.102 Y37.591 E8.70775
G1 X47.328 Y40.257 E8.79674
G1 X47.643 Y43.029 E8.88953
G1 X47.999 Y45.594 E8.97566
G1 X48.014 Y46.369 E9.00145
G1 X48.014 Y48.034 E9.05682
G1 X48.004 Y48.761 E9.08101
G1 X47.944 Y49.358 E9.10096
G1 X47.798 Y49.907 E9.11986
G1 X47.567 Y50.427 E9.13878
G1 X47.258 Y50.903 E9.15766
G1 X46.876 Y51.327 E9.17664
G1 X46.485 Y51.647 E9.19344
G1 X45.942 Y51.964 E9.21436
G1 X45.313 Y52.203 E9.23674
G1 X42.655 Y52.707 E9.32672
G1 X38.973 Y53.523 E9.45215
G1 X38.238 Y53.622 E9.47682
G1 X36.477 Y53.649 E9.5354
G1 X-15.744 Y53.649 E11.27227
G1 X-16.743 Y53.632 E11.30551
G1 X-20.381 Y53.15 E11.42756
G1 X-21.101 Y53.042 E11.45178
G1 X-21.742 Y52.887 E11.47371
G1 X-23.025 Y52.344 E11.52005
G1 X-26.104 Y50.999 E11.6318
G1 X-26.76 Y50.701 E11.65577
G1 X-27.255 Y50.422 E11.67467
G1 X-27.701 Y50.069 E11.69358
G1 X-28.046 Y49.699 E11.71041
G1 X-28.398 Y49.175 E11.73141
G1 X-28.633 Y48.657 E11.75032
G1 X-28.781 Y48.137 E11.76831
G1 X-28.847 Y47.363 E11.79414
G1 X-28.792 Y44.649 E11.88443
G1 X-28.655 Y41.833 E11.9782
G1 X-28.248 Y39.4 E12.06025
G1 X-27.865 Y36.712 E12.15055
G1 X-27.552 Y33.951 E12.24297
G1 X-27.325 Y31.289 E12.33183
G1 X-27.17 Y28.557 E12.42285
G1 X-27.082 Y24.495 E12.55798
G0 F3000 X-26.682 Y24.504
G1 F1500 X-26.637 Y-36.75 E14.5953
G1 X-26.675 Y-39.55 E14.68843
G1 X-26.788 Y-42.267 E14.77888
G1 X-26.979 Y-44.982 E14.8694
G1 X-27.251 Y-47.75 E14.96191
G1 X-27.59 Y-50.415 E15.05126
G1 X-28.019 Y-53.166 E15.14387
G1 X-28.144 Y-53.855 E15.16716
G1 X-28.424 Y-55.681 E15.2286
G1 X-28.44 Y-56.716 E15.26303
G1 X-28.43 Y-58.349 E15.31735
G1 X-28.387 Y-58.853 E15.33417
G1 X-28.265 Y-59.344 E15.351
G1 X-28.067 Y-59.809 E15.36781
G1 X-27.799 Y-60.238 E15.38463
G1 X-27.466 Y-60.618 E15.40144
G1 X-27.077 Y-60.942 E15.41827
G1 X-26.554 Y-61.242 E15.43833
G1 X-25.661 Y-61.648 E15.47095
G1 X-23.675 Y-62.519 E15.54308
G1 X-21.82 Y-63.315 E15.61022
G1 X-21.255 Y-63.506 E15.63006
G1 X-20.241 Y-63.655 E15.66415
G1 X-17.521 Y-64.017 E15.75541
G1 X-16.766 Y-64.106 E15.7807
G1 X-16.19 Y-64.135 E15.79988
G1 X36.498 Y-64.138 E17.55229
G1 X37.766 Y-64.12 E17.59447
G1 X38.358 Y-64.093 E17.61418
G1 X38.924 Y-64.015 E17.63318
G1 X41.158 Y-63.5 E17.70943
G1 X43.864 Y-62.952 E17.80126
G1 X44.977 Y-62.749 E17.83889
G1 X45.466 Y-62.619 E17.85572
G1 X45.928 Y-62.414 E17.87253
G1 X46.352 Y-62.139 E17.88934
G1 X46.727 Y-61.801 E17.90613
G1 X47.045 Y-61.407 E17.92297
G1 X47.296 Y-60.968 E17.93979
G1 X47.475 Y-60.496 E17.95658
G1 X47.599 Y-59.899 E17.97686
G1 X47.614 Y-58.93 E18.00909
G1 X47.614 Y-57.421 E18.05928
G1 X47.599 Y-56.471 E18.09088
G1 X47.171 Y-53.941 E18.17623
G1 X46.776 Y-51.179 E18.26903
G1 X46.47 Y-48.486 E18.35917
G1 X46.237 Y-45.772 E18.44977
G1 X46.081 Y-43.019 E18.54148
G1 X45.992 Y-39.151 E18.67017
G1 X45.936 Y-19.023 E19.33963
G1 X45.969 Y-16.214 E19.43306
G1 X46.074 Y-13.548 E19.5218
G1 X46.264 Y-10.75 E19.61508
G1 X46.524 Y-8.049 E19.70533
G1 X46.702 Y-6.655 E19.75207
G1 X46.815 Y-5.666 E19.78518
G1 X46.845 Y-5.07 E19.80503
G1 X46.846 Y7.041 E20.20784
G1 X46.831 Y7.883 E20.23585
G1 X46.678 Y10.593 E20.32613
G1 X46.6 Y13.355 E20.41803
G1 X46.59 Y14.734 E20.4639
G1 X46.59 Y25.194 E20.8118
G1 X46.58 Y25.888 E20.83488
G1 X46.55 Y26.619 E20.85922
G1 X46.471 Y29.411 E20.95212
G1 X46.471 Y32.128 E21.04249
G1 X46.549 Y34.883 E21.13415
G1 X46.703 Y37.625 E21.2255
G1 X46.93 Y40.291 E21.31449
G1 X47.247 Y43.084 E21.40798
G1 X47.599 Y45.602 E21.49254
G1 X47.614 Y46.377 E21.51833
G1 X47.614 Y48.028 E21.57324
G1 X47.604 Y48.755 E21.59742
G1 X47.557 Y49.258 E21.61422
G1 X47.431 Y49.748 E21.63105
G1 X47.23 Y50.212 E21.64787
G1 X46.958 Y50.638 E21.66468
G1 X46.623 Y51.017 E21.6815
G1 X46.232 Y51.337 E21.69831
G1 X45.796 Y51.592 E21.71511
G1 X45.239 Y51.81 E21.735
G1 X42.568 Y52.316 E21.82542
G1 X38.886 Y53.132 E21.95086
G1 X38.232 Y53.222 E21.97281
G1 X36.471 Y53.249 E22.03139
G1 X-15.738 Y53.249 E23.76787
G1 X-16.69 Y53.235 E23.79954
G1 X-20.322 Y52.754 E23.92139
G1 X-21.011 Y52.652 E23.94456
G1 X-21.586 Y52.519 E23.96419
G1 X-22.865 Y51.977 E24.01039
G1 X-25.939 Y50.635 E24.12195
G1 X-26.567 Y50.351 E24.14487
G1 X-27.009 Y50.107 E24.16167
G1 X-27.408 Y49.796 E24.17849
G1 X-27.753 Y49.426 E24.19532
G1 X-28.035 Y49.007 E24.21212
G1 X-28.248 Y48.548 E24.22895
G1 X-28.386 Y48.062 E24.24575
G1 X-28.447 Y47.371 E24.26882
G1 X-28.392 Y44.668 E24.35874
G1 X-28.255 Y41.852 E24.45251
G1 X-27.852 Y39.456 E24.53332
G1 X-27.469 Y36.768 E24.62363
G1 X-27.153 Y33.985 E24.71679
G1 X-26.927 Y31.323 E24.80565
G1 X-26.77 Y28.566 E24.89749
G1 X-26.682 Y24.504 E25.03263
G1 F2400 E18.53263
G0 F3000 X-24.092 Y41.211
G0 X-23.012 Y41.817
G0 X-1.265 Y36.312
G0 X-1.236 Y35.849
G1 F2400 E25.03263
G1 F1500 X0.548 Y35.936 E25.09203
G1 X4.812 Y38.079 E25.25076
G1 X4.835 Y38.089 E25.25159
G1 X8.739 Y39.472 E25.38935
G1 X8.76 Y39.478 E25.39007
G1 X17.651 Y41.602 E25.69411
G1 X25.944 Y44.268 E25.98384
G1 X25.979 Y44.276 E25.98503
G1 X33.437 Y45.252 E26.2352
G1 X33.442 Y45.253 E26.23537
G1 X42.768 Y46.228 E26.54725
G1 X42.89 Y46.201 E26.5514
G1 X42.973 Y46.108 E26.55555
G1 X42.989 Y46.029 E26.55823
G1 X42.989 Y43.373 E26.64657
G1 X43.086 Y43.774 E26.66029
G1 X43.151 Y43.88 E26.66443
G1 X43.189 Y43.896 E26.6658
G1 X43.189 Y43.995 E26.66909
G1 X43.21 Y44.084 E26.67213
G1 X43.337 Y44.341 E26.68167
G1 X43.424 Y44.43 E26.68581
G1 X43.445 Y44.436 E26.68653
G1 X43.445 Y44.523 E26.68943
G1 X43.465 Y44.611 E26.69243
G1 X43.59 Y44.866 E26.70187
G1 X43.678 Y44.955 E26.70604
G1 X43.702 Y44.962 E26.70687
G1 X43.702 Y45.049 E26.70976
G1 X43.722 Y45.136 E26.71273
G1 X43.844 Y45.389 E26.72207
G1 X43.931 Y45.479 E26.72623
G1 X43.958 Y45.487 E26.72717
G1 X43.958 Y45.572 E26.73
G1 X43.978 Y45.66 E26.733
G1 X44.109 Y45.928 E26.74292
G1 X44.196 Y46.017 E26.74706
G1 X44.214 Y46.023 E26.74769
G1 X44.214 Y48.514 E26.83054
G1 X43.686 Y48.497 E26.84811
G1 X43.642 Y48.501 E26.84958
G1 X42.674 Y48.688 E26.88237
G1 X42.663 Y48.69 E26.88275
G1 X39.909 Y49.388 E26.97724
G1 X39.884 Y49.388 E26.97807
G1 X39.831 Y49.394 E26.97985
G1 X38.384 Y49.758 E27.02947
G1 X38.378 Y49.76 E27.02968
G1 X38.171 Y49.819 E27.03684
G1 X37.178 Y49.849 E27.06989
G1 X-16.388 Y49.849 E28.8515
G1 X-20.487 Y49.302 E28.98904
G1 X-21.074 Y49.027 E29.0106
G1 X-21.079 Y49.025 E29.01078
G1 X-22.274 Y48.502 E29.05416
G1 X-22.366 Y48.487 E29.05726
G1 X-25.054 Y47.311 E29.15485
G1 X-25.006 Y45.543 E29.21368
G1 X-25.006 Y44.922 E29.23433
G1 X-24.996 Y44.914 E29.23476
G1 X-24.966 Y44.83 E29.23772
G1 X-24.88 Y44.084 E29.2627
G1 X-24.879 Y44.061 E29.26346
G1 X-24.879 Y42.457 E29.31681
G1 X-24.807 Y42.423 E29.31946
G1 X-24.747 Y42.306 E29.32384
G1 X-24.644 Y41.569 E29.34859
G1 X-24.642 Y41.541 E29.34952
G1 X-24.642 Y41.152 E29.36246
G1 X-24.533 Y41.1 E29.36647
G1 X-24.472 Y40.981 E29.37092
G1 X-24.374 Y40.24 E29.39578
G1 X-24.372 Y40.214 E29.39665
G1 X-24.372 Y39.83 E29.40942
G1 X-24.263 Y39.778 E29.41344
G1 X-24.202 Y39.659 E29.41789
G1 X-24.104 Y38.92 E29.44268
G1 X-24.102 Y38.894 E29.44355
G1 X-24.102 Y38.507 E29.45642
G1 X-23.993 Y38.456 E29.46042
G1 X-23.932 Y38.337 E29.46487
G1 X-23.834 Y37.607 E29.48937
G1 X-23.832 Y37.58 E29.49027
G1 X-23.832 Y37.193 E29.50314
G1 X-23.718 Y37.14 E29.50732
G1 X-23.658 Y37.028 E29.51155
G1 X-23.63 Y36.864 E29.51708
G1 X-23.633 Y40.825 E29.64882
G1 X-23.594 Y40.944 E29.65299
G1 X-23.531 Y40.999 E29.65577
G1 X-23.123 Y41.228 E29.67133
G1 X-23 Y41.252 E29.6755
G1 X-22.921 Y41.225 E29.67828
G1 X-18.767 Y38.698 E29.84
G1 X-16.646 Y37.783 E29.91683
G1 X-11.882 Y36.51 E30.08084
G1 X-8.132 Y35.683 E30.20856
G1 X-3.751 Y35.683 E30.35427
G1 X-1.239 Y35.849 E30.438
G0 F3000 X-1.255 Y36.248
G1 F1500 X0.444 Y36.331 E30.49458
G1 X4.633 Y38.436 E30.65051
G1 X4.702 Y38.466 E30.65301
G1 X8.606 Y39.849 E30.79076
G1 X8.667 Y39.867 E30.79288
G1 X17.54 Y41.987 E31.0963
G1 X25.821 Y44.649 E31.38561
G1 X25.927 Y44.673 E31.38923
G1 X33.385 Y45.649 E31.6394
G1 X33.401 Y45.651 E31.63993
G1 X42.727 Y46.626 E31.95181
G1 X42.944 Y46.609 E31.95905
G1 X43.141 Y46.515 E31.96631
G1 X43.292 Y46.357 E31.97358
G1 X43.376 Y46.155 E31.98085
G1 X43.389 Y46.029 E31.98506
G1 X43.389 Y45.366 E32.00712
G1 X43.484 Y45.563 E32.01439
G1 X43.59 Y45.708 E32.02036
G1 X43.619 Y45.835 E32.0247
G1 X43.75 Y46.103 E32.03462
G1 X43.814 Y46.19 E32.03821
G1 X43.814 Y48.101 E32.10177
G1 X43.699 Y48.097 E32.1056
G1 X43.566 Y48.108 E32.11004
G1 X42.598 Y48.295 E32.14283
G1 X42.565 Y48.302 E32.14395
G1 X39.834 Y48.995 E32.23766
G1 X39.734 Y49.006 E32.24101
G1 X38.287 Y49.37 E32.29064
G1 X38.269 Y49.375 E32.29126
G1 X38.109 Y49.42 E32.29678
G1 X37.166 Y49.449 E32.32816
G1 X-16.357 Y49.449 E34.10835
G1 X-20.375 Y48.913 E34.24317
G1 X-20.904 Y48.665 E34.2626
G1 X-20.918 Y48.658 E34.26312
G1 X-22.113 Y48.135 E34.30651
G1 X-22.203 Y48.121 E34.30954
G1 X-24.647 Y47.052 E34.39826
G1 X-24.606 Y45.554 E34.4481
G1 X-24.606 Y45 E34.46653
G1 X-24.569 Y44.876 E34.47083
G1 X-24.483 Y44.13 E34.49581
G1 X-24.479 Y44.061 E34.49811
G1 X-24.479 Y42.648 E34.5451
G1 X-24.456 Y42.626 E34.54616
G1 X-24.351 Y42.361 E34.55564
G1 X-24.248 Y41.624 E34.5804
G1 X-24.242 Y41.541 E34.58316
G1 X-24.242 Y41.362 E34.58912
G1 X-24.182 Y41.304 E34.59189
G1 X-24.075 Y41.034 E34.60155
G1 X-24.033 Y40.716 E34.61222
G1 X-24.033 Y40.825 E34.61585
G1 X-23.993 Y41.039 E34.62309
G1 X-23.88 Y41.225 E34.63033
G1 X-23.727 Y41.348 E34.63685
G1 X-23.319 Y41.577 E34.65242
G1 X-23.112 Y41.648 E34.65969
G1 X-22.894 Y41.64 E34.66695
G1 X-22.713 Y41.567 E34.67344
G1 X-18.58 Y39.053 E34.83434
G1 X-16.518 Y38.163 E34.90904
G1 X-11.785 Y36.899 E35.07197
G1 X-8.086 Y36.083 E35.19796
G1 X-3.763 Y36.083 E35.34175
G1 X-1.266 Y36.248 E35.42498
G1 X-1.255 Y36.248 E35.42534
G0 F3000 X-1.275 Y36.648
G1 F1500 X0.339 Y36.727 E35.47909
G1 X4.453 Y38.794 E35.63222
G1 X4.568 Y38.843 E35.63638
G1 X8.472 Y40.226 E35.77413
G1 X8.574 Y40.256 E35.77767
G1 X17.431 Y42.372 E36.08054
G1 X25.699 Y45.03 E36.3694
G1 X25.875 Y45.07 E36.3754
G1 X33.333 Y46.046 E36.62557
G1 X33.359 Y46.049 E36.62644
G1 X42.685 Y47.024 E36.93832
G1 X42.967 Y47.013 E36.9477
G1 X43.235 Y46.924 E36.9571
G1 X43.414 Y46.801 E36.96432
G1 X43.414 Y47.73 E36.99522
G1 X42.522 Y47.902 E37.02543
G1 X42.466 Y47.915 E37.02735
G1 X39.741 Y48.606 E37.12085
G1 X39.636 Y48.618 E37.12436
G1 X38.189 Y48.982 E37.17399
G1 X38.16 Y48.99 E37.17499
G1 X38.048 Y49.022 E37.17886
G1 X37.154 Y49.049 E37.20861
G1 X-16.334 Y49.049 E38.98763
G1 X-20.26 Y48.525 E39.11937
G1 X-20.734 Y48.303 E39.13678
G1 X-20.758 Y48.292 E39.13765
G1 X-21.953 Y47.769 E39.18104
G1 X-22.115 Y47.724 E39.18663
G1 X-24.24 Y46.794 E39.26378
G1 X-24.206 Y45.565 E39.30468
G1 X-24.206 Y45.068 E39.32121
G1 X-24.172 Y44.922 E39.32619
G1 X-24.086 Y44.176 E39.35117
G1 X-24.079 Y44.061 E39.355
G1 X-24.079 Y42.759 E39.3983
G1 X-24.017 Y42.651 E39.40245
G1 X-23.955 Y42.416 E39.41053
G1 X-23.859 Y41.732 E39.4335
G1 X-23.514 Y41.926 E39.44667
G1 X-23.251 Y42.028 E39.45605
G1 X-22.97 Y42.053 E39.46543
G1 X-22.694 Y41.997 E39.4748
G1 X-22.505 Y41.908 E39.48175
G1 X-18.397 Y39.409 E39.64168
G1 X-16.386 Y38.541 E39.71453
G1 X-11.709 Y37.292 E39.87554
G1 X-8.041 Y36.483 E40.00047
G1 X-3.774 Y36.483 E40.14239
G1 X-1.292 Y36.647 E40.22512
G1 X-1.275 Y36.648 E40.22568
G0 F3000 X-1.294 Y37.047
G1 F1500 X0.235 Y37.122 E40.2766
G1 X4.273 Y39.151 E40.42691
G1 X4.435 Y39.22 E40.43276
G1 X8.339 Y40.603 E40.57052
G1 X8.481 Y40.645 E40.57544
G1 X17.322 Y42.757 E40.87777
G1 X25.577 Y45.411 E41.16617
G1 X25.823 Y45.466 E41.17456
G1 X33.281 Y46.442 E41.42473
G1 X33.317 Y46.446 E41.42593
G1 X42.643 Y47.421 E41.73781
G1 X42.923 Y47.417 E41.74712
G1 X42.446 Y47.509 E41.76328
G1 X42.368 Y47.527 E41.76594
G1 X39.643 Y48.218 E41.85944
G1 X39.538 Y48.23 E41.86296
G1 X38.091 Y48.594 E41.91258
G1 X38.051 Y48.605 E41.91396
G1 X37.983 Y48.624 E41.91631
G1 X37.174 Y48.649 E41.94323
G1 X-16.304 Y48.649 E43.72192
G1 X-20.148 Y48.136 E43.8509
G1 X-20.564 Y47.941 E43.86618
G1 X-20.598 Y47.925 E43.86743
G1 X-21.793 Y47.402 E43.91082
G1 X-21.979 Y47.346 E43.91728
G1 X-23.833 Y46.535 E43.98459
G1 X-23.807 Y45.576 E44.01649
G1 X-23.806 Y45.538 E44.01776
G1 X-23.806 Y45.142 E44.03093
G1 X-23.774 Y44.967 E44.03685
G1 X-23.688 Y44.221 E44.06182
G1 X-23.679 Y44.061 E44.06715
G1 X-23.679 Y42.866 E44.1069
G1 X-23.659 Y42.832 E44.10821
G1 X-23.558 Y42.472 E44.12065
G1 X-23.54 Y42.345 E44.12491
G1 X-23.401 Y42.402 E44.12991
G1 X-23.071 Y42.453 E44.14102
G1 X-22.738 Y42.424 E44.15213
G1 X-22.297 Y42.25 E44.1679
G1 X-18.211 Y39.764 E44.32698
G1 X-16.257 Y38.921 E44.39776
G1 X-11.589 Y37.674 E44.55846
G1 X-8.001 Y36.883 E44.68067
G1 X-3.785 Y36.883 E44.82089
G1 X-1.318 Y37.046 E44.90312
G1 X-1.294 Y37.047 E44.90392
G0 F3000 X-1.314 Y37.447
G1 F1500 X0.133 Y37.518 E44.95211
G1 X4.094 Y39.508 E45.09954
G1 X4.301 Y39.597 E45.10704
G1 X8.205 Y40.98 E45.24479
G1 X8.388 Y41.034 E45.25114
G1 X17.209 Y43.141 E45.55278
G1 X25.454 Y45.792 E45.84083
G1 X25.771 Y45.863 E45.85164
G1 X33.229 Y46.839 E46.10181
G1 X33.276 Y46.844 E46.10338
G1 X40.468 Y47.596 E46.34389
G1 X39.544 Y47.83 E46.37559
G1 X39.441 Y47.842 E46.37904
G1 X37.994 Y48.206 E46.42867
G1 X37.942 Y48.22 E46.43046
G1 X37.921 Y48.226 E46.43119
G1 X37.162 Y48.249 E46.45644
G1 X-16.281 Y48.249 E48.23396
G1 X-20.031 Y47.749 E48.35979
G1 X-20.395 Y47.578 E48.37317
G1 X-20.437 Y47.559 E48.3747
G1 X-21.632 Y47.036 E48.41809
G1 X-21.845 Y46.968 E48.42552
G1 X-23.426 Y46.277 E48.48291
G1 X-23.407 Y45.587 E48.50587
