;FLAVOR:Marlin
;TIME:1425
;Filament used: 2.92884m
;Layer height: 0.2
;MINX:-23.749
;MINY:-31.08
;MINZ:0.2
;MAXX:23.734
;MAXY:36.037
;MAXZ:30
;TARGET_MACHINE.NAME:Unknown
;Generated with Cura_SteamEngine 5.6.0
M82 ;absolute extrusion mode
G21 ; millimeter units
G90 ; absolute coordinates
M82 ; E absolute
M140 S60
M104 S220
M190 S60
M109 S220
G28 ; home axis
M420 S1 ; enable mesh leveling
; Lower nozzle and move to start position
G1 Z150
G1 X-130 Y0 Z0.4 F3000
; Extrude about 40 mm by printing a 90 degree arc
G3 X0 Y-130 I130 Z0.3 E40 F2700
; Retract and move nozzle up
G92 E0
G1 E-1.5 F1800
G0 Z0.5
G1 E0 F300

G92 E0
G92 E0
G1 F2400 E-6.5
;LAYER_COUNT:150
;LAYER:0
M107
G1 F3000 Z0.5
G0 X5.587 Y7.637 Z0.5
;TYPE:SKIRT
G1 F3000 Z0.2
G1 F2400 E0
G1 F1500 X3.485 Y9.405 E0.09135
G1 X1.433 Y11.233 E0.18276
G1 X-.524 Y13.076 E0.27217
G1 X-2.48 Y15.027 E0.36406
G1 X-4.349 Y16.999 E0.45442
G1 X-6.155 Y19.018 E0.54452
G1 X-7.912 Y21.093 E0.63495
G1 X-9.642 Y23.263 E0.72726
G1 X-11.269 Y25.421 E0.81715
G1 X-12.836 Y27.633 E0.90731
G1 X-14.362 Y29.917 E0.99867
G1 X-15.796 Y32.203 E1.08842
G1 X-17.057 Y34.325 E1.17052
G1 X-17.351 Y34.737 E1.18736
G1 X-17.794 Y35.187 E1.20836
G1 X-18.254 Y35.52 E1.22725
G1 X-18.762 Y35.778 E1.2462
G1 X-19.303 Y35.951 E1.26509
G1 X-19.864 Y36.037 E1.28397
G1 X-20.434 Y36.034 E1.30292
G1 X-20.994 Y35.941 E1.3218
G1 X-21.534 Y35.761 E1.34074
G1 X-22.038 Y35.498 E1.35964
G1 X-22.447 Y35.2 E1.37648
G1 X-22.893 Y34.753 E1.39748
G1 X-23.188 Y34.343 E1.41428
G1 X-23.448 Y33.837 E1.4332
G1 X-23.637 Y33.261 E1.45336
G1 X-23.727 Y32.522 E1.47812
G1 X-23.749 Y31.431 E1.51442
G1 X-23.749 Y23.422 E1.7808
G1 X-23.735 Y22.672 E1.80575
G1 X-23.646 Y21.96 E1.82961
G1 X-22.971 Y19.04 E1.92929
G1 X-22.434 Y16.368 E2.01994
G1 X-21.975 Y13.693 E2.11021
G1 X-21.59 Y10.988 E2.20109
G1 X-21.283 Y8.294 E2.29127
G1 X-21.052 Y5.595 E2.38137
G1 X-20.897 Y2.866 E2.47228
G1 X-20.818 Y0.113 E2.56388
G1 X-20.818 Y-2.594 E2.65392
G1 X-20.895 Y-5.335 E2.74512
G1 X-21.047 Y-8.027 E2.8348
G1 X-21.278 Y-10.771 E2.92639
G1 X-21.586 Y-13.484 E3.0172
G1 X-21.968 Y-16.174 E3.10757
G1 X-22.427 Y-18.852 E3.19794
G1 X-22.955 Y-21.491 E3.28745
G1 X-23.644 Y-24.468 E3.38909
G1 X-23.736 Y-25.25 E3.41527
G1 X-23.749 Y-26.852 E3.46856
G1 X-23.739 Y-27.536 E3.49131
G1 X-23.678 Y-28.133 E3.51127
G1 X-23.532 Y-28.682 E3.53017
G1 X-23.301 Y-29.201 E3.54906
G1 X-22.991 Y-29.679 E3.56801
G1 X-22.609 Y-30.101 E3.58694
G1 X-22.167 Y-30.456 E3.6058
G1 X-21.673 Y-30.739 E3.62473
G1 X-21.141 Y-30.94 E3.64365
G1 X-20.584 Y-31.054 E3.66256
G1 X-20.016 Y-31.08 E3.68147
G1 X-19.451 Y-31.015 E3.70038
G1 X-18.835 Y-30.844 E3.72165
G1 X-18.004 Y-30.469 E3.75197
G1 X19.952 Y-12.769 E5.14491
G1 X20.584 Y-12.462 E5.16828
G1 X21.235 Y-12.055 E5.19382
G1 X21.653 Y-11.723 E5.21157
G1 X22.12 Y-11.327 E5.23194
G1 X22.519 Y-10.923 E5.25082
G1 X22.849 Y-10.466 E5.26957
G1 X23.128 Y-9.931 E5.28964
G1 X23.496 Y-8.982 E5.32349
G1 X23.665 Y-8.405 E5.34349
G1 X23.734 Y-7.844 E5.36229
G1 X23.718 Y-7.181 E5.38435
G1 X23.592 Y-6.233 E5.41615
G1 X23.462 Y-5.646 E5.43615
G1 X23.253 Y-5.121 E5.45495
G1 X22.93 Y-4.562 E5.47642
G1 X22.344 Y-3.761 E5.50943
G1 X22.015 Y-3.377 E5.52625
G1 X21.46 Y-2.9 E5.55059
G1 X19.069 Y-1.587 E5.64131
G1 X16.685 Y-.191 E5.7332
G1 X14.398 Y1.236 E5.82286
G1 X12.114 Y2.754 E5.91407
G1 X9.867 Y4.339 E6.00553
G1 X7.689 Y5.968 E6.09599
G1 X5.587 Y7.637 E6.18526
G0 F3000 X5.338 Y7.324
G1 F1500 X3.219 Y9.106 E6.27735
G1 X1.167 Y10.934 E6.36875
G1 X-.798 Y12.785 E6.45854
G1 X-2.762 Y14.744 E6.5508
G1 X-4.647 Y16.732 E6.64192
G1 X-6.453 Y18.751 E6.73202
G1 X-8.224 Y20.844 E6.82321
G1 X-9.955 Y23.013 E6.91551
G1 X-11.588 Y25.181 E7.00578
G1 X-13.169 Y27.411 E7.0967
G1 X-14.695 Y29.695 E7.18806
G1 X-16.135 Y31.99 E7.27818
G1 X-17.383 Y34.093 E7.35951
G1 X-17.677 Y34.505 E7.37635
G1 X-18.031 Y34.865 E7.39314
G1 X-18.438 Y35.165 E7.40996
G1 X-18.887 Y35.398 E7.42678
G1 X-19.367 Y35.556 E7.44359
G1 X-19.866 Y35.637 E7.4604
G1 X-20.372 Y35.639 E7.47723
G1 X-20.871 Y35.561 E7.49403
G1 X-21.352 Y35.405 E7.51085
G1 X-21.802 Y35.175 E7.52766
G1 X-22.211 Y34.877 E7.54449
G1 X-22.568 Y34.519 E7.56131
G1 X-22.863 Y34.109 E7.57811
G1 X-23.091 Y33.657 E7.59494
G1 X-23.244 Y33.176 E7.61173
G1 X-23.327 Y32.514 E7.63392
G1 X-23.349 Y31.423 E7.67022
G1 X-23.349 Y23.428 E7.93613
G1 X-23.338 Y22.721 E7.95965
G1 X-23.256 Y22.05 E7.98213
G1 X-22.581 Y19.13 E8.08181
G1 X-22.042 Y16.447 E8.17283
G1 X-21.581 Y13.761 E8.26348
G1 X-21.194 Y11.044 E8.35476
G1 X-20.884 Y8.328 E8.44568
G1 X-20.654 Y5.629 E8.53577
G1 X-20.497 Y2.877 E8.62745
G1 X-20.418 Y0.124 E8.71905
G1 X-20.418 Y-2.594 E8.80946
G1 X-20.495 Y-5.346 E8.90102
G1 X-20.648 Y-8.061 E8.99147
G1 X-20.88 Y-10.805 E9.08306
G1 X-21.19 Y-13.54 E9.17461
G1 X-21.572 Y-16.23 E9.26498
G1 X-22.033 Y-18.92 E9.35575
G1 X-22.565 Y-21.581 E9.44601
G1 X-23.254 Y-24.558 E9.54764
G1 X-23.336 Y-25.253 E9.57092
G1 X-23.349 Y-26.846 E9.6239
G1 X-23.339 Y-27.53 E9.64665
G1 X-23.291 Y-28.033 E9.66346
G1 X-23.165 Y-28.523 E9.68029
G1 X-22.964 Y-28.986 E9.69707
G1 X-22.692 Y-29.413 E9.71391
G1 X-22.356 Y-29.791 E9.73073
G1 X-21.965 Y-30.111 E9.74754
G1 X-21.528 Y-30.366 E9.76437
G1 X-21.057 Y-30.549 E9.78117
G1 X-20.563 Y-30.655 E9.79798
G1 X-20.058 Y-30.682 E9.8148
G1 X-19.555 Y-30.629 E9.83162
G1 X-19 Y-30.48 E9.85073
G1 X-18.173 Y-30.106 E9.88092
G1 X19.777 Y-12.409 E11.27364
G1 X20.409 Y-12.102 E11.29701
G1 X20.987 Y-11.741 E11.31967
G1 X21.395 Y-11.418 E11.33698
G1 X21.838 Y-11.043 E11.35629
G1 X22.196 Y-10.687 E11.37308
G1 X22.495 Y-10.279 E11.3899
G1 X22.755 Y-9.786 E11.40844
G1 X23.123 Y-8.837 E11.44229
G1 X23.268 Y-8.353 E11.4591
G1 X23.334 Y-7.852 E11.47591
G1 X23.321 Y-7.234 E11.49647
G1 X23.195 Y-6.286 E11.52827
G1 X23.089 Y-5.791 E11.54511
G1 X22.906 Y-5.32 E11.56192
G1 X22.607 Y-4.798 E11.58193
G1 X22.04 Y-4.021 E11.61392
G1 X21.711 Y-3.637 E11.63074
G1 X21.235 Y-3.234 E11.65148
G1 X18.876 Y-1.937 E11.74102
G1 X16.483 Y-.536 E11.83325
G1 X14.186 Y0.897 E11.92329
G1 X11.883 Y2.427 E12.01525
G1 X9.636 Y4.012 E12.10671
G1 X7.449 Y5.648 E12.19755
G1 X5.338 Y7.324 E12.2872
G1 F2400 E5.7872
;MESH:supporto case.stl
G0 F3000 X3.011 Y1.713
G0 X2.595 Y0.712
G0 X18.681 Y-6.813
G0 X18.958 Y-7.53
G0 X18.386 Y-8.245
G0 X17.683 Y-8.551
G0 X17.56 Y-7.668
G0 X17.51 Y-7.669
;TYPE:WALL-INNER
G1 F2400 E12.2872
G1 F1500 X17.364 Y-7.442 E12.29618
G1 X17.101 Y-7.213 E12.30778
G1 X1.839 Y-1.042 E12.85532
G1 F1360.5 X1.083 Y-.353 E12.89283
G1 F1142.9 X0.326 Y0.337 E12.93754
G1 F1087 X0.00 Y0.588 E12.95642
G1 F1061.9 X-1.161 Y1.602 E13.02884
G1 F1209.7 X-1.528 Y1.784 E13.04574
G1 F1500 X-10.601 Y9.395 E13.43962
G1 F1470.6 X-13.555 Y14.132 E13.62901
G1 X-13.715 Y14.368 E13.63869
G1 F1388.9 X-14.165 Y15.149 E13.67107
G1 F1212.1 X-14.615 Y15.931 E13.7082
G1 F1075.3 X-15.066 Y16.713 E13.75009
G1 F1212.1 X-15.356 Y17 E13.76688
G1 F1500 X-19.147 Y23.059 E14.0046
G1 X-19.147 Y27.727 E14.15986
G1 X-14.62 Y17.39 E14.53519
G1 F1212.1 X-14.546 Y16.987 E14.55205
G1 F1060.1 X-13.974 Y15.801 E14.61402
G1 F1158.3 X-13.402 Y14.615 E14.67074
G1 F1318.7 X-13.234 Y14.39 E14.68136
G1 F1470.6 X-9.34 Y10.584 E14.86609
G1 F1500 X-.98 Y2.389 E15.25546
G1 F1209.7 X-.763 Y2.041 E15.27237
G1 F1061.9 X0.345 Y0.999 E15.34383
G1 F1087 X0.616 Y0.816 E15.35884
G1 F1142.9 X1.527 Y0.483 E15.40118
G1 F1360.5 X2.439 Y0.149 E15.43679
G1 F1500 X18.161 Y-6.38 E16.00301
G1 X18.79 Y-6.685 E16.02626
G1 X19.068 Y-7.079 E16.04229
G1 X19.124 Y-7.552 E16.05814
G1 X18.945 Y-7.995 E16.07403
G1 X18.472 Y-8.383 E16.09438
G1 X17.028 Y-9.058 E16.14739
G1 X17.485 Y-8.628 E16.16826
G1 X17.605 Y-8.116 E16.18575
G1 X17.51 Y-7.669 E16.20095
G0 F3000 X17.205 Y-8.13
G1 F1500 X17.147 Y-7.838 E16.21085
G1 X16.903 Y-7.565 E16.22303
G1 X1.63 Y-1.389 E16.77097
G1 X-10.907 Y9.129 E17.31527
G1 X-19.548 Y22.944 E17.85724
G1 X-19.548 Y29.637 E18.07985
G1 X-13.019 Y14.752 E18.62045
G1 X0.646 Y1.357 E19.2569
G1 X0.802 Y1.262 E19.26297
G1 X18.325 Y-6.015 E19.89405
G1 X19.057 Y-6.37 E19.9211
G1 X19.453 Y-6.93 E19.94392
G1 X19.534 Y-7.607 E19.96659
G1 X19.278 Y-8.239 E19.98927
G1 X18.687 Y-8.724 E20.0147
G1 X-19.548 Y-26.553 E21.41787
G1 X-19.548 Y-25.675 E21.44707
G1 X16.859 Y-8.696 E22.78318
G1 X17.133 Y-8.437 E22.79572
G1 X17.205 Y-8.13 E22.80621
G0 F3000 X17.028 Y-9.058
G1 F1507.5 X-19.15 Y-25.928 E24.12725
G1 F2400 E17.62725
G0 F3000 X17.519 Y-8.645
G0 X17.49 Y-7.554
G0 X16.785 Y-8.007
;TYPE:WALL-OUTER
G1 F2400 E24.12725
G1 F1500 X16.711 Y-7.923 E24.13097
G1 X1.422 Y-1.736 E24.67954
G1 X-11.213 Y8.863 E25.22807
G1 X-19.948 Y22.829 E25.77595
G1 X-19.948 Y31.548 E26.06594
G1 X-12.697 Y15.004 E26.66673
G1 X0.92 Y1.647 E27.30115
G1 X18.489 Y-5.65 E27.93389
G1 X19.324 Y-6.055 E27.96476
G1 X19.839 Y-6.782 E27.99439
G1 X19.944 Y-7.662 E28.02387
G1 X19.61 Y-8.484 E28.05338
G1 X18.902 Y-9.066 E28.08386
G1 X-19.948 Y-27.181 E29.50958
G1 X-19.948 Y-25.42 E29.56815
G1 X16.69 Y-8.333 E30.91275
G1 X16.781 Y-8.247 E30.91691
G1 X16.785 Y-8.007 E30.92489
G0 F3000 X16.711 Y-7.923
G0 X16.629 Y-7.89
G0 X16.891 Y-7.239
G0 X17.64 Y-7.213
;TYPE:SKIN
G1 F1500 X17.851 Y-7.55 E30.93812
G1 X17.96 Y-8.063 E30.95556
G1 X17.941 Y-8.233 E30.96125
G1 X18.277 Y-8.076 E30.97359
G1 X18.644 Y-7.772 E30.98944
G1 X18.754 Y-7.502 E30.99913
G1 X18.719 Y-7.214 E31.00878
G1 X18.547 Y-6.969 E31.01874
G1 X18.037 Y-6.722 E31.03759
G1 F1456.3 X17.552 Y-6.534 E31.05541
G1 F1395.3 X15.373 Y-5.635 E31.13969
G1 F1360.5 X13.193 Y-4.735 E31.22617
G1 F1324.5 X11.013 Y-3.836 E31.31499
G1 F1293.1 X8.834 Y-2.936 E31.40595
G1 F1263.2 X6.654 Y-2.037 E31.49909
G1 F1232 X4.474 Y-1.137 E31.59459
G1 F1204.8 X2.295 Y-.237 E31.69222
G1 F1190.5 X2.297 Y-.238 E31.69231
G1 F1192.8 X1.275 Y0.087 E31.73716
G1 X2.046 Y-.68 E31.78265
G1 F1207.2 X4.224 Y-1.567 E31.87983
G1 F1232 X6.402 Y-2.454 E31.97506
G1 F1260.5 X8.581 Y-3.341 E32.06818
G1 F1287.6 X10.759 Y-4.228 E32.1593
G1 F1315.8 X12.938 Y-5.115 E32.24851
G1 F1348.3 X15.116 Y-6.002 E32.33552
G1 F1379.3 X17.295 Y-6.889 E32.42062
G1 F1445.8 X17.64 Y-7.213 E32.43695
G0 F3000 X18.548 Y-7.472
G1 F1500 X18.126 Y-7.894 E32.4568
G0 F3000 X18.012 Y-7.443
G1 F1500 X18.355 Y-7.1 E32.47293
G0 F3000 X17.975 Y-6.914
G1 F1500 X17.797 Y-7.092 E32.48131
G1 F2400 E25.98131
G0 F3000 X17.442 Y-7.378
G0 X17.683 Y-8.551
G0 X18.386 Y-8.245
G0 X18.958 Y-7.53
G0 X18.681 Y-6.813
G0 X0.56 Y1.103
G0 X-7.471 Y8.612
G0 X-7.726 Y8.351
G1 F2400 E32.48131
G1 F1207.2 X-7.944 Y8.699 E32.49828
G1 F1500 X-12.539 Y13.195 E32.7121
G1 X-10.325 Y9.632 E32.85162
G1 X-8.491 Y8.094 E32.93123
G1 F1207.2 X-8.123 Y7.911 E32.94821
G1 F1038.1 X-7.53 Y7.394 E32.98602
G1 F1094.9 X-6.937 Y6.877 E33.02187
G1 F1158.3 X-6.344 Y6.36 E33.05576
G1 F1229.5 X-5.75 Y5.843 E33.08771
G1 F1310 X-5.157 Y5.326 E33.11767
G1 F1401.9 X-4.564 Y4.808 E33.14569
G1 F1507.5 X-3.971 Y4.291 E33.17173
G1 F1630.4 X-3.377 Y3.774 E33.19582
G1 F1699.7 X-3.376 Y3.773 E33.19587
G1 F1167.3 X-2.967 Y3.64 E33.21425
G1 X-3.141 Y4.033 E33.23262
G1 F1630.4 X-3.713 Y4.572 E33.25666
G1 F1507.5 X-4.286 Y5.112 E33.28272
G1 F1401.9 X-4.859 Y5.651 E33.31072
G1 F1310 X-5.432 Y6.191 E33.3407
G1 F1229.5 X-6.005 Y6.73 E33.37262
G1 F1158.3 X-6.578 Y7.27 E33.40654
G1 F1094.9 X-7.151 Y7.81 E33.44241
G1 F1038.1 X-7.724 Y8.349 E33.48022
G1 F2400 E26.98022
G0 F3000 X-7.469 Y8.61
G0 X-1.087 Y2.267
G0 X-3.222 Y3.336
G0 X-2.967 Y3.64
G1 F2400 E33.48022
G1 F557.3 X-2.412 Y3.137 E33.52046
G1 F613.3 X-1.856 Y2.633 E33.55708
G1 F683.1 X-1.3 Y2.129 E33.58997
G1 F2400 E27.08997
G0 F3000 X-1.01 Y2.233
G0 X-7.638 Y8.775
G0 X-8.021 Y8.383
G1 F2400 E33.58997
G1 F1500 X-8.198 Y8.205 E33.59832
G0 F3000 X-8.558 Y8.411
G1 F1500 X-8.251 Y8.718 E33.61276
G0 F3000 X-8.537 Y8.998
G1 F1500 X-8.866 Y8.669 E33.62823
G0 F3000 X-9.173 Y8.928
G1 F1500 X-8.823 Y9.277 E33.64467
G0 F3000 X-9.109 Y9.557
G1 F1500 X-9.48 Y9.186 E33.66212
G0 F3000 X-9.788 Y9.444
G1 F1500 X-9.395 Y9.837 E33.68061
G0 F3000 X-9.68 Y10.117
G1 F1500 X-10.096 Y9.702 E33.70015
G0 F3000 X-10.335 Y10.028
G1 F1500 X-9.967 Y10.397 E33.71748
G0 F3000 X-10.253 Y10.677
G1 F1500 X-10.552 Y10.377 E33.73157
G0 F3000 X-10.769 Y10.726
G1 F1500 X-10.538 Y10.957 E33.74244
G0 F3000 X-10.824 Y11.237
G1 F1500 X-10.986 Y11.075 E33.75006
G0 F3000 X-11.203 Y11.424
G1 F1500 X-11.11 Y11.516 E33.75441
G1 F2400 E27.25441
G0 F3000 X-10.785 Y11.851
G0 X-13.229 Y14.626
G0 X-16.532 Y21.505
G0 X-16.856 Y21.362
G1 F2400 E33.75441
G1 F1214.6 X-16.93 Y21.764 E33.7712
G1 F1500 X-18.786 Y26.008 E33.92526
G1 X-18.786 Y23.163 E34.01989
G1 X-17.666 Y21.375 E34.09006
G1 F1214.6 X-17.376 Y21.087 E34.10685
G1 F1071.4 X-16.983 Y20.404 E34.14354
G1 F1195.2 X-16.589 Y19.72 E34.17649
G1 F1351.4 X-16.195 Y19.036 E34.20563
G1 F1554.4 X-15.801 Y18.353 E34.23094
G1 F1181.1 X-15.463 Y18.095 E34.2489
G1 X-15.485 Y18.52 E34.26688
G1 F1554.4 X-15.827 Y19.23 E34.29217
G1 F1351.4 X-16.17 Y19.941 E34.32132
G1 F1195.2 X-16.513 Y20.652 E34.35427
G1 F1071.4 X-16.856 Y21.362 E34.39098
G0 F3000 X-16.532 Y21.505
G0 X-15.108 Y18.252
G0 X-15.463 Y18.095
G1 F608.1 X-15.026 Y17.268 E34.43703
G0 F3000 X-14.733 Y17.397
G0 X-17.709 Y20.951
G0 X-17.184 Y21.281
G1 F1500 X-17.122 Y21.344 E34.43997
G0 F3000 X-17.517 Y21.514
G1 F1500 X-17.184 Y21.848 E34.45565
G0 F3000 X-17.356 Y22.241
G1 F1500 X-17.735 Y21.862 E34.47348
G0 F3000 X-17.953 Y22.21
G1 F1500 X-17.528 Y22.635 E34.49347
G0 F3000 X-17.701 Y23.028
G1 F1500 X-18.171 Y22.557 E34.5156
G0 F3000 X-18.389 Y22.905
G1 F1500 X-17.872 Y23.422 E34.53992
G0 F3000 X-18.044 Y23.816
G1 F1500 X-18.586 Y23.274 E34.56541
G0 F3000 X-18.586 Y23.84
G1 F1500 X-18.217 Y24.209 E34.58277
G0 F3000 X-18.586 Y24.405
G1 F1500 X-18.389 Y24.603 E34.59206
G0 F3000 X-18.059 Y24.747
M104 S220
G1 F2400 E28.09206
;MESH:NONMESH
G0 F3000 X-18.059 Y24.747 Z0.4
G0 X-17.97 Y24.788
G0 X-12.877 Y14.869
G0 X-11.971 Y15.496
G0 X5.338 Y7.324
;TIME_ELAPSED:50.369990
;LAYER:1
M106 S255
;TYPE:SKIRT
G1 F2400 E34.59206
G1 F1500 X3.219 Y9.106 E34.68415
G1 X1.167 Y10.934 E34.77555
G1 X-.798 Y12.785 E34.86534
G1 X-2.762 Y14.744 E34.9576
G1 X-4.647 Y16.732 E35.04872
G1 X-6.453 Y18.751 E35.13882
G1 X-8.224 Y20.844 E35.23001
G1 X-9.955 Y23.013 E35.32231
G1 X-11.588 Y25.181 E35.41258
G1 X-13.169 Y27.411 E35.5035
G1 X-14.695 Y29.695 E35.59486
G1 X-16.135 Y31.99 E35.68498
G1 X-17.383 Y34.093 E35.76631
G1 X-17.677 Y34.505 E35.78315
G1 X-18.031 Y34.865 E35.79994
G1 X-18.438 Y35.165 E35.81676
G1 X-18.887 Y35.398 E35.83358
G1 X-19.367 Y35.556 E35.85039
G1 X-19.866 Y35.637 E35.8672
G1 X-20.372 Y35.639 E35.88403
G1 X-20.871 Y35.561 E35.90083
G1 X-21.352 Y35.405 E35.91765
G1 X-21.802 Y35.175 E35.93446
G1 X-22.211 Y34.877 E35.95129
G1 X-22.568 Y34.519 E35.9681
G1 X-22.863 Y34.109 E35.9849
G1 X-23.091 Y33.657 E36.00174
G1 X-23.244 Y33.176 E36.01853
G1 X-23.327 Y32.514 E36.04072
G1 X-23.349 Y31.423 E36.07701
G1 X-23.349 Y23.428 E36.34293
G1 X-23.338 Y22.721 E36.36645
G1 X-23.256 Y22.05 E36.38893
G1 X-22.581 Y19.13 E36.48861
G1 X-22.042 Y16.447 E36.57963
G1 X-21.581 Y13.761 E36.67027
G1 X-21.194 Y11.044 E36.76155
G1 X-20.884 Y8.328 E36.85248
G1 X-20.654 Y5.629 E36.94257
G1 X-20.497 Y2.877 E37.03425
G1 X-20.418 Y0.124 E37.12585
G1 X-20.418 Y-2.594 E37.21625
G1 X-20.495 Y-5.346 E37.30782
G1 X-20.648 Y-8.061 E37.39827
G1 X-20.88 Y-10.805 E37.48986
G1 X-21.19 Y-13.54 E37.58141
G1 X-21.572 Y-16.23 E37.67177
G1 X-22.033 Y-18.92 E37.76255
G1 X-22.565 Y-21.581 E37.8528
G1 X-23.254 Y-24.558 E37.95444
G1 X-23.336 Y-25.253 E37.97771
G1 X-23.349 Y-26.846 E38.0307
G1 X-23.339 Y-27.53 E38.05345
G1 X-23.291 Y-28.033 E38.07026
G1 X-23.165 Y-28.523 E38.08708
G1 X-22.964 Y-28.986 E38.10387
G1 X-22.692 Y-29.413 E38.12071
G1 X-22.356 Y-29.791 E38.13753
G1 X-21.965 Y-30.111 E38.15434
G1 X-21.528 Y-30.366 E38.17117
G1 X-21.057 Y-30.549 E38.18797
G1 X-20.563 Y-30.655 E38.20478
G1 X-20.058 Y-30.682 E38.2216
G1 X-19.555 Y-30.629 E38.23842
G1 X-19 Y-30.48 E38.25753
G1 X-18.173 Y-30.106 E38.28772
G1 X19.777 Y-12.409 E39.68044
G1 X20.409 Y-12.102 E39.70381
G1 X20.987 Y-11.741 E39.72647
G1 X21.395 Y-11.418 E39.74378
G1 X21.838 Y-11.043 E39.76308
G1 X22.196 Y-10.687 E39.77988
G1 X22.495 Y-10.279 E39.7967
G1 X22.755 Y-9.786 E39.81524
G1 X23.123 Y-8.837 E39.84909
G1 X23.268 Y-8.353 E39.8659
