;FLAVOR:Marlin
;TIME:3415
;Filament used: 5.04526m
;Layer height: 0.2
;MINX:-58.1
;MINY:-38.6
;MINZ:0.2
;MAXX:58.1
;MAXY:38.6
;MAXZ:9.3
;TARGET_MACHINE.NAME:Unknown
;Generated with Cura_SteamEngine 5.6.0
M82 ;absolute extrusion mode
G21 ; millimeter units
G90 ; absolute coordinates
M82 ; E absolute
M140 S60
M104 S220
M190 S60
M109 S220
G28 ; home axis
M420 S1 ; enable mesh leveling
; Lower nozzle and move to start position
G1 Z150
G1 X-130 Y0 Z0.4 F3000
; Extrude about 40 mm by printing a 90 degree arc
G3 X0 Y-130 I130 Z0.3 E40 F2700
; Retract and move nozzle up
G92 E0
G1 E-1.5 F1800
G0 Z0.5
G1 E0 F300

G92 E0
G92 E0
G1 F2400 E-6.5
;LAYER_COUNT:45
;LAYER:0
M107
G1 F3000 Z0.5
G0 X58.1 Y25.348 Z0.5
;TYPE:SKIRT
G1 F3000 Z0.2
G1 F2400 E0
G1 F1500 X58.082 Y26.318 E0.03227
G1 X57.977 Y27.047 E0.05676
G1 X57.382 Y30.696 E0.17973
G1 X57.256 Y31.397 E0.20342
G1 X57.083 Y32.058 E0.22615
G1 X56.453 Y33.313 E0.27285
G1 X55.007 Y36.066 E0.37628
G1 X54.649 Y36.723 E0.40117
G1 X54.335 Y37.197 E0.42008
G1 X53.95 Y37.616 E0.439
G1 X53.504 Y37.968 E0.4579
G1 X53.008 Y38.246 E0.47681
G1 X52.474 Y38.443 E0.49574
G1 X51.813 Y38.572 E0.51814
G1 X50.489 Y38.599 E0.56219
G1 X-50.844 Y38.6 E3.93254
G1 X-51.533 Y38.59 E3.95546
G1 X-52.131 Y38.529 E3.97545
G1 X-52.679 Y38.383 E3.99431
G1 X-53.199 Y38.152 E4.01324
G1 X-53.676 Y37.842 E4.03216
G1 X-54.097 Y37.461 E4.05104
G1 X-54.5 Y36.97 E4.07217
G1 X-55.163 Y35.767 E4.11786
G1 X-56.609 Y33.014 E4.22128
G1 X-56.92 Y32.399 E4.24421
G1 X-57.18 Y31.77 E4.26684
G1 X-57.427 Y30.407 E4.31291
G1 X-57.944 Y27.238 E4.41971
G1 X-58.08 Y26.318 E4.45064
G1 X-58.099 Y25.459 E4.47922
G1 X-58.1 Y-26.86 E6.21936
G1 X-58.089 Y-27.582 E6.24337
G1 X-58.039 Y-28.2 E6.26399
G1 X-57.644 Y-31.204 E6.36477
G1 X-57.532 Y-31.952 E6.38992
G1 X-57.327 Y-32.709 E6.41601
G1 X-56.981 Y-33.586 E6.44737
G1 X-56.08 Y-35.763 E6.52573
G1 X-55.786 Y-36.444 E6.5504
G1 X-55.516 Y-36.945 E6.56933
G1 X-55.17 Y-37.396 E6.58824
G1 X-54.757 Y-37.787 E6.60715
G1 X-54.289 Y-38.109 E6.62605
G1 X-53.775 Y-38.353 E6.64497
G1 X-53.224 Y-38.513 E6.66405
G1 X-52.478 Y-38.6 E6.68903
G1 X51.845 Y-38.6 E10.15883
G1 X52.545 Y-38.59 E10.18211
G1 X53.142 Y-38.53 E10.20207
G1 X53.692 Y-38.384 E10.221
G1 X54.155 Y-38.182 E10.2378
G1 X54.637 Y-37.88 E10.25672
G1 X55.11 Y-37.461 E10.27773
G1 X55.43 Y-37.07 E10.29454
G1 X55.814 Y-36.402 E10.32017
G1 X57.064 Y-33.385 E10.42878
G1 X57.311 Y-32.763 E10.45104
G1 X57.525 Y-31.97 E10.47836
G1 X57.667 Y-31.025 E10.51015
G1 X57.979 Y-28.667 E10.58926
G1 X58.068 Y-27.913 E10.61451
G1 X58.098 Y-27.274 E10.63579
G1 X58.1 Y25.348 E12.386
G0 F3000 X57.7 Y25.342
G1 F1500 X57.686 Y26.261 E12.41657
G1 X57.582 Y26.983 E12.44083
G1 X56.988 Y30.626 E12.5636
G1 X56.869 Y31.296 E12.58623
G1 X56.707 Y31.915 E12.60751
G1 X56.099 Y33.127 E12.65261
G1 X54.655 Y35.875 E12.75586
G1 X54.313 Y36.505 E12.7797
G1 X54.038 Y36.929 E12.79651
G1 X53.699 Y37.304 E12.81333
G1 X53.305 Y37.621 E12.83015
G1 X52.866 Y37.872 E12.84696
G1 X52.394 Y38.051 E12.86375
G1 X51.805 Y38.172 E12.88375
G1 X50.489 Y38.199 E12.92753
G1 X-50.838 Y38.2 E16.29768
G1 X-51.527 Y38.19 E16.3206
G1 X-52.031 Y38.142 E16.33744
G1 X-52.52 Y38.016 E16.35424
G1 X-52.984 Y37.815 E16.37105
G1 X-53.41 Y37.543 E16.38786
G1 X-53.788 Y37.207 E16.40469
G1 X-54.169 Y36.743 E16.42465
G1 X-54.809 Y35.581 E16.46878
G1 X-56.252 Y32.833 E16.57201
G1 X-56.55 Y32.246 E16.59391
G1 X-56.793 Y31.657 E16.6151
G1 X-57.032 Y30.343 E16.65952
G1 X-57.548 Y27.18 E16.76611
G1 X-57.684 Y26.26 E16.79704
G1 X-57.699 Y25.459 E16.82369
G1 X-57.7 Y-26.854 E18.56363
G1 X-57.69 Y-27.55 E18.58678
G1 X-57.642 Y-28.148 E18.60673
G1 X-57.248 Y-31.146 E18.7073
G1 X-57.145 Y-31.849 E18.73094
G1 X-56.955 Y-32.562 E18.75548
G1 X-56.611 Y-33.433 E18.78662
G1 X-55.713 Y-35.605 E18.8648
G1 X-55.432 Y-36.257 E18.88841
G1 X-55.196 Y-36.704 E18.90522
G1 X-54.892 Y-37.108 E18.92204
G1 X-54.528 Y-37.459 E18.93886
G1 X-54.114 Y-37.749 E18.95567
G1 X-53.659 Y-37.97 E18.97249
G1 X-53.176 Y-38.116 E18.98928
G1 X-52.478 Y-38.2 E19.01266
G1 X51.839 Y-38.2 E22.48226
G1 X52.539 Y-38.19 E22.50554
G1 X53.042 Y-38.143 E22.52234
G1 X53.532 Y-38.017 E22.53917
G1 X53.995 Y-37.815 E22.55597
G1 X54.422 Y-37.543 E22.57281
G1 X54.8 Y-37.208 E22.58961
G1 X55.12 Y-36.817 E22.60641
G1 X55.444 Y-36.249 E22.62816
G1 X56.692 Y-33.237 E22.7366
G1 X56.939 Y-32.615 E22.75886
G1 X57.129 Y-31.911 E22.78311
G1 X57.27 Y-30.972 E22.8147
G1 X57.582 Y-28.62 E22.89361
G1 X57.668 Y-27.894 E22.91792
G1 X57.698 Y-27.274 E22.93857
G1 X57.7 Y25.342 E24.68859
G1 F2400 E18.18859
G1 F3000 Z0.5
G0 X-37.534 Y-19.991 Z0.5
G1 F3000 Z0.2
G1 F2400 E24.68859
G1 F1500 X-38.173 Y-19.425 E24.71698
G1 X-39 Y-19.222 E24.7453
G1 X-39.827 Y-19.425 E24.77362
G1 X-40.466 Y-19.991 E24.80201
G1 X-40.767 Y-20.787 E24.83032
G1 X-40.664 Y-21.63 E24.85857
G1 X-40.18 Y-22.331 E24.8869
G1 X-39.425 Y-22.727 E24.91525
G1 X-38.575 Y-22.727 E24.94353
G1 X-37.82 Y-22.331 E24.97188
G1 X-37.336 Y-21.63 E25.00021
G1 X-37.233 Y-20.787 E25.02846
G1 X-37.534 Y-19.991 E25.05677
G0 F3000 X-37.873 Y-20.224
G1 F1500 X-38.363 Y-19.791 E25.07851
G1 X-39 Y-19.634 E25.10034
G1 X-39.637 Y-19.791 E25.12216
G1 X-40.127 Y-20.224 E25.14391
G1 X-40.358 Y-20.836 E25.16566
G1 X-40.279 Y-21.485 E25.18741
G1 X-39.908 Y-22.022 E25.20912
G1 X-39.326 Y-22.327 E25.23097
G1 X-38.674 Y-22.327 E25.25266
G1 X-38.092 Y-22.022 E25.27451
G1 X-37.721 Y-21.485 E25.29622
G1 X-37.642 Y-20.836 E25.31796
G1 X-37.873 Y-20.224 E25.33972
G0 F3000 X-38.213 Y-20.457
G1 F1500 X-38.553 Y-20.155 E25.35485
G1 X-39 Y-20.046 E25.37015
G1 X-39.447 Y-20.155 E25.38545
G1 X-39.787 Y-20.457 E25.40058
G1 X-39.949 Y-20.885 E25.4158
G1 X-39.894 Y-21.339 E25.43101
G1 X-39.635 Y-21.713 E25.44614
G1 X-39.228 Y-21.927 E25.46143
G1 X-38.772 Y-21.927 E25.4766
G1 X-38.365 Y-21.713 E25.49189
G1 X-38.106 Y-21.339 E25.50703
G1 X-38.051 Y-20.885 E25.52224
G1 X-38.213 Y-20.457 E25.53746
G0 F3000 X-38.552 Y-20.692
G1 F1500 X-38.745 Y-20.521 E25.54603
G1 X-39 Y-20.458 E25.55477
G1 X-39.255 Y-20.521 E25.56351
G1 X-39.448 Y-20.692 E25.57208
G1 X-39.54 Y-20.935 E25.58072
G1 X-39.509 Y-21.194 E25.5894
G1 X-39.362 Y-21.406 E25.59798
G1 X-39.131 Y-21.527 E25.60665
G1 X-38.869 Y-21.527 E25.61537
G1 X-38.638 Y-21.406 E25.62404
G1 X-38.491 Y-21.194 E25.63262
G1 X-38.46 Y-20.935 E25.6413
G1 X-38.552 Y-20.692 E25.64994
G0 F3000 X-38.89 Y-20.926
G1 F1500 X-38.937 Y-20.885 E25.65201
G1 X-39 Y-20.869 E25.65418
G1 X-39.063 Y-20.885 E25.65634
G1 X-39.11 Y-20.926 E25.65841
G1 X-39.131 Y-20.984 E25.66046
G1 X-39.124 Y-21.048 E25.66261
G1 X-39.091 Y-21.095 E25.66452
G1 X-39.03 Y-21.127 E25.66681
G1 X-38.97 Y-21.127 E25.6688
G1 X-38.909 Y-21.095 E25.67109
G1 X-38.876 Y-21.048 E25.673
G1 X-38.869 Y-20.984 E25.67514
G1 X-38.89 Y-20.926 E25.6772
G1 F2400 E19.1772
G1 F3000 Z0.5
G0 X-38.575 Y19.273 Z0.5
G1 F3000 Z0.2
G1 F2400 E25.6772
G1 F1500 X-37.82 Y19.669 E25.70555
G1 X-37.336 Y20.37 E25.73389
G1 X-37.233 Y21.213 E25.76213
G1 X-37.534 Y22.009 E25.79044
G1 X-38.173 Y22.575 E25.81883
G1 X-39 Y22.778 E25.84715
G1 X-39.827 Y22.575 E25.87547
G1 X-40.466 Y22.009 E25.90387
G1 X-40.767 Y21.213 E25.93217
G1 X-40.664 Y20.37 E25.96042
G1 X-40.18 Y19.669 E25.98875
G1 X-39.425 Y19.273 E26.01711
G1 X-38.575 Y19.273 E26.04538
G0 F3000 X-38.674 Y19.673
G1 F1500 X-38.092 Y19.978 E26.06723
G1 X-37.721 Y20.515 E26.08894
G1 X-37.642 Y21.164 E26.11069
G1 X-37.873 Y21.776 E26.13244
G1 X-38.363 Y22.209 E26.15419
G1 X-39 Y22.366 E26.17601
G1 X-39.637 Y22.209 E26.19783
G1 X-40.127 Y21.776 E26.21958
G1 X-40.358 Y21.164 E26.24134
G1 X-40.279 Y20.515 E26.26308
G1 X-39.908 Y19.978 E26.28479
G1 X-39.326 Y19.673 E26.30665
G1 X-38.674 Y19.673 E26.32833
G0 F3000 X-38.772 Y20.073
G1 F1500 X-38.365 Y20.287 E26.34363
G1 X-38.106 Y20.661 E26.35876
G1 X-38.051 Y21.115 E26.37397
G1 X-38.213 Y21.543 E26.38919
G1 X-38.553 Y21.845 E26.40431
G1 X-39 Y21.954 E26.41962
G1 X-39.447 Y21.845 E26.43492
G1 X-39.787 Y21.543 E26.45004
G1 X-39.949 Y21.115 E26.46527
G1 X-39.894 Y20.661 E26.48048
G1 X-39.635 Y20.287 E26.49561
G1 X-39.228 Y20.073 E26.5109
G1 X-38.772 Y20.073 E26.52607
G0 F3000 X-38.869 Y20.473
G1 F1500 X-38.638 Y20.594 E26.53474
G1 X-38.491 Y20.806 E26.54332
G1 X-38.46 Y21.065 E26.552
G1 X-38.552 Y21.308 E26.56064
G1 X-38.745 Y21.479 E26.56922
G1 X-39 Y21.542 E26.57795
G1 X-39.255 Y21.479 E26.58669
G1 X-39.448 Y21.308 E26.59526
G1 X-39.54 Y21.065 E26.60391
G1 X-39.509 Y20.806 E26.61258
G1 X-39.362 Y20.594 E26.62116
G1 X-39.131 Y20.473 E26.62984
G1 X-38.869 Y20.473 E26.63855
G0 F3000 X-38.97 Y20.873
G1 F1500 X-38.909 Y20.905 E26.64084
G1 X-38.876 Y20.952 E26.64275
G1 X-38.869 Y21.016 E26.64489
G1 X-38.89 Y21.074 E26.64694
G1 X-38.937 Y21.115 E26.64902
G1 X-39 Y21.131 E26.65118
G1 X-39.063 Y21.115 E26.65334
G1 X-39.11 Y21.074 E26.65542
G1 X-39.131 Y21.016 E26.65747
G1 X-39.124 Y20.952 E26.65961
G1 X-39.091 Y20.905 E26.66152
G1 X-39.03 Y20.873 E26.66381
G1 X-38.97 Y20.873 E26.66581
G1 F2400 E20.16581
G1 F3000 Z0.5
G0 X37.233 Y21.213 Z0.5
G1 F3000 Z0.2
G1 F2400 E26.66581
G1 F1500 X37.336 Y20.37 E26.69405
G1 X37.82 Y19.669 E26.72239
G1 X38.575 Y19.273 E26.75074
G1 X39.425 Y19.273 E26.77901
G1 X40.18 Y19.669 E26.80737
G1 X40.664 Y20.37 E26.8357
G1 X40.767 Y21.213 E26.86395
G1 X40.466 Y22.009 E26.89225
G1 X39.827 Y22.575 E26.92065
G1 X39 Y22.778 E26.94897
G1 X38.173 Y22.575 E26.97729
G1 X37.534 Y22.009 E27.00568
G1 X37.233 Y21.213 E27.03399
G0 F3000 X37.642 Y21.164
G1 F1500 X37.721 Y20.515 E27.05573
G1 X38.092 Y19.978 E27.07744
G1 X38.674 Y19.673 E27.0993
G1 X39.326 Y19.673 E27.12098
G1 X39.908 Y19.978 E27.14284
G1 X40.279 Y20.515 E27.16454
G1 X40.358 Y21.164 E27.18629
G1 X40.127 Y21.776 E27.20805
G1 X39.637 Y22.209 E27.2298
G1 X39 Y22.366 E27.25162
G1 X38.363 Y22.209 E27.27344
G1 X37.873 Y21.776 E27.29519
G1 X37.642 Y21.164 E27.31694
G0 F3000 X38.051 Y21.115
G1 F1500 X38.106 Y20.661 E27.33215
G1 X38.365 Y20.287 E27.34728
G1 X38.772 Y20.073 E27.36258
G1 X39.228 Y20.073 E27.37774
G1 X39.635 Y20.287 E27.39304
G1 X39.894 Y20.661 E27.40817
G1 X39.949 Y21.115 E27.42338
G1 X39.787 Y21.543 E27.4386
G1 X39.447 Y21.845 E27.45373
G1 X39 Y21.954 E27.46903
G1 X38.553 Y21.845 E27.48433
G1 X38.213 Y21.543 E27.49946
G1 X38.051 Y21.115 E27.51468
G0 F3000 X38.46 Y21.065
G1 F1500 X38.491 Y20.806 E27.52335
G1 X38.638 Y20.594 E27.53193
G1 X38.869 Y20.473 E27.54061
G1 X39.131 Y20.473 E27.54932
G1 X39.362 Y20.594 E27.558
G1 X39.509 Y20.806 E27.56658
G1 X39.54 Y21.065 E27.57525
G1 X39.448 Y21.308 E27.58389
G1 X39.255 Y21.479 E27.59247
G1 X39 Y21.542 E27.60121
G1 X38.745 Y21.479 E27.60994
G1 X38.552 Y21.308 E27.61852
G1 X38.46 Y21.065 E27.62716
G0 F3000 X38.869 Y21.016
G1 F1500 X38.876 Y20.952 E27.6293
G1 X38.909 Y20.905 E27.63121
G1 X38.97 Y20.873 E27.6335
G1 X39.03 Y20.873 E27.6355
G1 X39.091 Y20.905 E27.63779
G1 X39.124 Y20.952 E27.6397
G1 X39.131 Y21.016 E27.64184
G1 X39.11 Y21.074 E27.64389
G1 X39.063 Y21.115 E27.64597
G1 X39 Y21.131 E27.64813
G1 X38.937 Y21.115 E27.65029
G1 X38.89 Y21.074 E27.65237
G1 X38.869 Y21.016 E27.65442
G1 F2400 E21.15442
G1 F3000 Z0.5
G0 X39 Y-19.222 Z0.5
G1 F3000 Z0.2
G1 F2400 E27.65442
G1 F1500 X38.173 Y-19.425 E27.68274
G1 X37.534 Y-19.991 E27.71113
G1 X37.233 Y-20.787 E27.73944
G1 X37.336 Y-21.63 E27.76768
G1 X37.82 Y-22.331 E27.79602
G1 X38.575 Y-22.727 E27.82437
G1 X39.425 Y-22.727 E27.85264
G1 X40.18 Y-22.331 E27.881
G1 X40.664 Y-21.63 E27.90933
G1 X40.767 Y-20.787 E27.93758
G1 X40.466 Y-19.991 E27.96588
G1 X39.827 Y-19.425 E27.99428
G1 X39 Y-19.222 E28.0226
G0 F3000 X39 Y-19.634
G1 F1500 X38.363 Y-19.791 E28.04442
G1 X37.873 Y-20.224 E28.06617
G1 X37.642 Y-20.836 E28.08792
G1 X37.721 Y-21.485 E28.10967
G1 X38.092 Y-22.022 E28.13138
G1 X38.674 Y-22.327 E28.15323
G1 X39.326 Y-22.327 E28.17492
G1 X39.908 Y-22.022 E28.19677
G1 X40.279 Y-21.485 E28.21848
G1 X40.358 Y-20.836 E28.24023
G1 X40.127 Y-20.224 E28.26198
G1 X39.637 Y-19.791 E28.28373
G1 X39 Y-19.634 E28.30555
G0 F3000 X39 Y-20.046
G1 F1500 X38.553 Y-20.155 E28.32086
G1 X38.213 Y-20.457 E28.33598
G1 X38.051 Y-20.885 E28.3512
G1 X38.106 Y-21.339 E28.36641
G1 X38.365 Y-21.713 E28.38154
G1 X38.772 Y-21.927 E28.39684
G1 X39.228 Y-21.927 E28.412
G1 X39.635 Y-21.713 E28.4273
G1 X39.894 Y-21.339 E28.44243
G1 X39.949 Y-20.885 E28.45764
G1 X39.787 Y-20.457 E28.47286
G1 X39.447 Y-20.155 E28.48799
G1 X39 Y-20.046 E28.50329
G0 F3000 X39 Y-20.458
G1 F1500 X38.745 Y-20.521 E28.51203
G1 X38.552 Y-20.692 E28.5206
G1 X38.46 Y-20.935 E28.52924
G1 X38.491 Y-21.194 E28.53792
G1 X38.638 Y-21.406 E28.5465
G1 X38.869 Y-21.527 E28.55517
G1 X39.131 Y-21.527 E28.56389
G1 X39.362 Y-21.406 E28.57256
G1 X39.509 Y-21.194 E28.58114
G1 X39.54 Y-20.935 E28.58982
G1 X39.448 Y-20.692 E28.59846
G1 X39.255 Y-20.521 E28.60704
G1 X39 Y-20.458 E28.61577
G0 F3000 X39 Y-20.869
G1 F1500 X38.937 Y-20.885 E28.61793
G1 X38.89 Y-20.926 E28.62001
G1 X38.869 Y-20.984 E28.62206
G1 X38.876 Y-21.048 E28.6242
G1 X38.909 Y-21.095 E28.62611
G1 X38.97 Y-21.127 E28.6284
G1 X39.03 Y-21.127 E28.6304
G1 X39.091 Y-21.095 E28.63269
G1 X39.124 Y-21.048 E28.6346
G1 X39.131 Y-20.984 E28.63674
G1 X39.11 Y-20.926 E28.63879
G1 X39.063 Y-20.885 E28.64087
G1 X39 Y-20.869 E28.64303
G1 F2400 E22.14303
;MESH:Parte sotto case schermino.stl
G0 F3000 X38.35 Y-18.228
G0 X38.845 Y-17.511
;TYPE:WALL-INNER
G1 F2400 E28.64303
G1 F1500 X37.487 Y-17.84 E28.6895
G1 X37.252 Y-17.967 E28.69839
G1 X36.245 Y-18.864 E28.74324
G1 X36.029 Y-19.173 E28.75578
G1 X35.551 Y-20.426 E28.80039
G1 X35.519 Y-20.759 E28.81151
G1 X35.679 Y-22.076 E28.85564
G1 X35.79 Y-22.376 E28.86628
G1 X36.559 Y-23.5 E28.91157
G1 X36.799 Y-23.716 E28.92231
G1 X38.028 Y-24.361 E28.96848
G1 X38.284 Y-24.427 E28.97727
G1 X39.729 Y-24.427 E29.02533
G1 X40.061 Y-24.314 E29.03699
G1 X41.196 Y-23.719 E29.07962
G1 X41.483 Y-23.439 E29.09295
G1 X42.206 Y-22.391 E29.1353
G1 X42.321 Y-22.092 E29.14596
G1 X42.486 Y-20.731 E29.19155
G1 X42.462 Y-20.462 E29.20054
G1 X41.958 Y-19.136 E29.24772
G1 X41.803 Y-18.913 E29.25675
G1 X40.757 Y-17.98 E29.30337
G1 X40.506 Y-17.839 E29.31294
G1 X39.239 Y-17.528 E29.35634
G1 X38.845 Y-17.511 E29.36945
G0 F3000 X38.99 Y-17.884
G1 F1500 X37.652 Y-18.214 E29.41529
G1 X37.486 Y-18.298 E29.42148
G1 X36.515 Y-19.159 E29.46464
G1 X36.405 Y-19.313 E29.47093
G1 X35.935 Y-20.553 E29.51504
G1 X35.913 Y-20.699 E29.51995
G1 X36.072 Y-22 E29.56354
G1 X36.138 Y-22.18 E29.56992
G1 X36.846 Y-23.212 E29.61155
G1 X36.996 Y-23.363 E29.61863
G1 X38.124 Y-23.959 E29.66106
G1 X38.322 Y-24.027 E29.66802
G1 X39.678 Y-24.027 E29.71312
G1 X39.876 Y-23.959 E29.72008
G1 X41.001 Y-23.365 E29.7624
G1 X41.106 Y-23.272 E29.76706
G1 X41.869 Y-22.167 E29.81173
G1 X41.921 Y-22.032 E29.81654
G1 X42.083 Y-20.698 E29.86123
G1 X42.071 Y-20.557 E29.86594
G1 X41.587 Y-19.298 E29.9108
G1 X41.505 Y-19.18 E29.91558
G1 X40.519 Y-18.302 E29.95949
G1 X40.347 Y-18.213 E29.96593
G1 X38.99 Y-17.884 E30.01238
G1 F2400 E23.51238
G1 F3000 Z0.5
G0 X14.916 Y-33.6 Z0.5
G1 F3000 Z0.2
G1 F2400 E30.01238
G1 F1500 X14.602 Y-33.683 E30.02318
G1 X14.385 Y-33.812 E30.03157
G1 X14.293 Y-34 E30.03854
G1 X-14.293 Y-34 E30.98931
G1 X-14.385 Y-33.812 E30.99627
G1 X-14.602 Y-33.683 E31.00467
G1 X-14.936 Y-33.602 E31.0161
G1 X-51.591 Y-33.601 E32.23525
G1 X-52.623 Y-31.052 E32.32671
G1 X-53.1 Y-27.445 E32.44773
G1 X-53.099 Y25.925 E34.22282
G1 X-52.382 Y30.323 E34.37103
G1 X-50.688 Y33.601 E34.49375
G1 X50.686 Y33.601 E37.86547
G1 X52.383 Y30.319 E37.98836
G1 X53.101 Y25.925 E38.13644
G1 X53.1 Y-27.445 E39.91153
G1 X52.624 Y-31.053 E40.03258
G1 X51.592 Y-33.601 E40.12401
G1 X14.916 Y-33.6 E41.34386
G0 F3000 X14.931 Y-34
G1 F1500 X14.631 Y-34.127 E41.35469
G1 X14.498 Y-34.4 E41.36479
G1 X-14.498 Y-34.4 E42.3292
G1 X-14.631 Y-34.127 E42.3393
G1 X-14.923 Y-34.005 E42.34983
G1 X-51.861 Y-34.001 E43.57839
G1 X-53.013 Y-31.155 E43.68051
G1 X-53.5 Y-27.471 E43.80411
G1 X-53.499 Y25.958 E45.58116
G1 X-52.767 Y30.451 E45.73257
G1 X-50.931 Y34.001 E45.8655
G1 X50.93 Y34.001 E49.25341
G1 X52.37 Y31.202 E49.35811
G1 X52.767 Y30.447 E49.38648
G1 X53.501 Y25.958 E49.53776
G1 X53.5 Y-27.471 E51.31482
G1 X53.014 Y-31.156 E51.43845
G1 X51.861 Y-34.001 E51.54055
G1 X14.931 Y-34 E52.76884
G1 F2400 E46.26884
